X: 1
T: The Hills Of Glenorchy
R: jig
M: 6/8
L: 1/8
K: Edor
|:d/c/|B2E EFE|BAB d2B|A2D DED|FDF Adc|
B2E EFE|BAB d2e|dBd AFD|EFE E2:|
|:B|efe edB|efg f2e|ded dAF|dcd fed|
efe edB|efg f2e|dBd AFD|EFE E2:|


Tune 842	Setting 14010

